Sources/FrostedUI/Resources/Icons.xcassets/notificationBellCrossed12.imageset/notification-bell-crossed-12.svg

<svg width="12" height="12" viewBox="0 0 12 12" fill="none" xmlns="http://www.w3.org/2000/svg" data-fui-icon="true">
  <path
    d="M9.89856 4.03809C10.3127 4.03817 10.6486 4.37392 10.6486 4.78809V7.60352C10.6486 7.71111 10.6843 7.81343 10.7462 7.89453L11.0372 8.27539C11.534 8.92479 11.1094 9.93128 10.2277 9.93164H8.25793C8.11704 10.9468 7.26409 11.7499 6.19934 11.75C5.03315 11.75 4.1175 10.787 4.11731 9.63672V9.18164C4.11741 8.76763 4.45332 8.43183 4.86731 8.43164H9.33118C9.2124 8.1731 9.14861 7.89092 9.14856 7.60352V4.78809C9.14856 4.37392 9.48441 4.03816 9.89856 4.03809ZM5.6925 9.93164C5.79434 10.1252 5.9888 10.25 6.19934 10.25C6.41 10.2499 6.6054 10.1254 6.70715 9.93164H5.6925ZM10.0021 0.439453C10.3117 0.164463 10.7855 0.192436 11.0607 0.501953C11.3356 0.811515 11.3076 1.28541 10.9982 1.56055L1.99817 9.56055C1.68861 9.8356 1.21474 9.80752 0.939575 9.49805C0.664502 9.18846 0.692529 8.71461 1.00208 8.43945L10.0021 0.439453ZM6.19934 0.25C6.53018 0.250012 6.85362 0.287049 7.16516 0.357422C7.56899 0.44875 7.82262 0.850044 7.73157 1.25391C7.64031 1.65782 7.239 1.91138 6.83508 1.82031C6.63113 1.77423 6.41819 1.75001 6.19934 1.75C4.58716 1.75004 3.25012 3.09351 3.25012 4.78809V5C3.25012 5.41416 2.91426 5.74991 2.50012 5.75C2.08591 5.75 1.75012 5.41421 1.75012 5V4.78809C1.75012 2.29874 3.72547 0.250039 6.19934 0.25Z"
    fill="currentColor"
  />
</svg>

<svg xmlns="http://www.w3.org/2000/svg" width="12" height="12" fill="none" data-fui-icon="true" viewBox="0 0 12 12"><path fill="currentColor" d="M9.899 4.038a.75.75 0 0 1 .75.75v2.816c0 .107.035.21.097.29l.291.381c.497.65.072 1.656-.81 1.657h-1.97c-.14 1.015-.993 1.818-2.058 1.818-1.166 0-2.081-.963-2.082-2.113v-.455a.75.75 0 0 1 .75-.75h4.464a2 2 0 0 1-.182-.828V4.788a.75.75 0 0 1 .75-.75M5.693 9.932a.58.58 0 0 0 .506.318c.211 0 .406-.125.508-.318zm4.31-9.493a.75.75 0 0 1 .995 1.122l-9 8a.75.75 0 0 1-.996-1.122zM6.198.25q.498.001.966.107a.75.75 0 0 1-.33 1.463 3 3 0 0 0-.636-.07c-1.612 0-2.949 1.344-2.949 3.038V5a.75.75 0 0 1-1.5 0v-.212C1.75 2.298 3.725.25 6.2.25"/></svg>
